images/darkgray-no-white.svg

<?xml version="1.0" encoding="UTF-8"?>
<svg width="137px" height="65px" viewBox="0 0 137 65" version="1.1" xmlns="http://www.w3.org/2000/svg" xmlns:xlink="http://www.w3.org/1999/xlink">
    <!-- Generator: Sketch 41.2 (35397) - http://www.bohemiancoding.com/sketch -->
    <title>Group 29</title>
    <desc>Created with Sketch.</desc>
    <defs>
        <rect id="path-1" x="1.84741111e-13" y="0" width="137" height="65" rx="4"></rect>
        <mask id="mask-2" maskContentUnits="userSpaceOnUse" maskUnits="objectBoundingBox" x="0" y="0" width="137" height="65" fill="white">
            <use xlink:href="#path-1"></use>
        </mask>
    </defs>
    <g id="Pages" stroke="none" stroke-width="1" fill="none" fill-rule="evenodd">
        <g id="Web-Mobile" transform="translate(-168.000000, -4232.000000)">
            <g id="Logo" transform="translate(13.000000, 550.000000)">
                <g id="Logo:dont" transform="translate(2.000000, 3279.000000)">
                    <g id="Group-29" transform="translate(153.000000, 403.000000)">
                        <use id="Rectangle-7" stroke="#DEE5EB" mask="url(#mask-2)" stroke-width="2" fill="#FFFFFF" xlink:href="#path-1"></use>
                        <path d="M21.1300077,32.0122102 C19.8265287,32.0122102 18.7101127,32.481691 17.8128064,33.3976388 C16.917736,34.3204908 16.4646112,35.4704119 16.4646112,36.8182513 C16.4646112,37.7549116 16.6635986,38.6048866 17.060828,39.3298202 C17.459548,40.0654935 18.028935,40.6416048 18.7525932,41.0566196 C19.4725249,41.4670318 20.2915778,41.6802927 21.1769597,41.6802927 C21.9319193,41.6802927 22.6309835,41.5330046 23.2570111,41.2453325 C23.8681333,40.9584276 24.549311,40.4329466 25.2729692,39.6988076 C25.3474963,39.7770543 26.864868,41.4094974 26.9461026,41.4877441 C25.9697976,42.4627607 25.0344824,43.1462695 24.1647512,43.5252294 C23.281605,43.9110935 22.2598385,44.1113133 21.133734,44.1113133 C19.0521921,44.1113133 17.3224181,43.4162977 15.9980716,42.0600198 C14.6692534,40.6999063 14,38.9385862 14,36.8105801 C14,35.4358912 14.3040706,34.1985178 14.9062495,33.1306791 C15.5121549,32.0666761 16.3900841,31.1921531 17.5132075,30.5393293 C18.6430383,29.8903411 19.874226,29.5635456 21.1709976,29.5635456 C22.2754892,29.5635456 23.3553869,29.8059573 24.3778987,30.2861779 C25.3855051,30.7602614 26.2604533,31.442236 26.996781,32.3098549 L25.275205,33.9959967 C24.05147,32.6819107 22.6578132,32.0122102 21.1300077,32.0122102 Z M27.4521416,38.6631881 C27.4521416,40.1437403 27.9589258,41.4225385 28.9605701,42.458925 C29.9637049,43.4907088 31.1859493,44.023861 32.5989831,44.023861 C33.5633638,44.023861 34.4539626,43.7822165 35.2536384,43.3104343 C36.0533142,42.8424878 36.6920114,42.1789242 37.1548247,41.3481273 C37.6154022,40.508892 37.848672,39.6029169 37.848672,38.6447771 C37.848672,37.6935415 37.6191285,36.7914019 37.1585511,35.9698106 C36.6987189,35.1451507 36.0533142,34.4846556 35.230535,34.0067365 C34.4092464,33.5265159 33.5231191,33.2879399 32.5922757,33.2879399 C31.3029569,33.2879399 30.1462962,33.753585 29.1573216,34.6679986 C28.0260002,35.7335359 27.4521416,37.0752384 27.4521416,38.6631881 Z M29.8422257,38.6555169 C29.8422257,37.7687198 30.1120138,37.0315122 30.6374298,36.4630723 C31.1665723,35.8892624 31.8380614,35.6008232 32.6325203,35.6008232 C33.4418846,35.6008232 34.1215718,35.8861939 34.6432615,36.4515654 C35.1656964,37.0138683 35.4280318,37.7556787 35.4280318,38.6555169 C35.4280318,39.5507523 35.1612248,40.2956311 34.6246297,40.8702082 C34.0984684,41.4463194 33.4239981,41.7332243 32.6220865,41.7332243 C31.8224107,41.7332243 31.1516668,41.4463194 30.626996,40.8809479 C30.1082874,40.3102066 29.8422257,39.5653277 29.8422257,38.6555169 Z M39.3421951,29.8166971 L41.742713,29.8166971 L41.742713,43.7599699 L39.3421951,43.7599699 L39.3421951,29.8166971 Z M43.2429436,38.6631881 C43.2429436,40.1437403 43.7504731,41.4225385 44.7506268,42.458925 C45.7530163,43.4907088 46.976006,44.023861 48.3920209,44.023861 C49.3541658,44.023861 50.2447646,43.7822165 51.0451857,43.3104343 C51.8403898,42.8424878 52.4813229,42.1789242 52.9433909,41.3481273 C53.4054589,40.508892 53.639474,39.6029169 53.639474,38.6447771 C53.639474,37.6935415 53.4076947,36.7914019 52.9486078,35.9698106 C52.487285,35.1451507 51.8403898,34.4846556 51.0220822,34.0067365 C50.1993031,33.5265159 49.3131758,33.2879399 48.3823324,33.2879399 C47.0967399,33.2879399 45.939334,33.753585 44.946633,34.6679986 C43.8145664,35.7335359 43.2429436,37.0752384 43.2429436,38.6631881 Z M45.6330276,38.6555169 C45.6330276,37.7687198 45.8998347,37.0315122 46.4289771,36.4630723 C46.9588647,35.8892624 47.6288634,35.6008232 48.4218317,35.6008232 C49.2341771,35.6008232 49.9101379,35.8861939 50.4325729,36.4515654 C50.9535173,37.0138683 51.2195791,37.7556787 51.2195791,38.6555169 C51.2195791,39.5507523 50.9512815,40.2956311 50.4184127,40.8702082 C49.888525,41.4463194 49.211819,41.7332243 48.4121432,41.7332243 C47.6117221,41.7332243 46.9417235,41.4463194 46.4207791,40.8809479 C45.8961083,40.3102066 45.6330276,39.5653277 45.6330276,38.6555169 Z M57.8070295,34.5935874 L57.7108895,34.6795055 L57.7108895,33.5510639 L55.3081358,33.5510639 L55.3081358,43.7599699 L57.7108895,43.7599699 L57.7108895,39.6742595 C57.7108895,38.5834071 57.7488983,37.8952955 57.8241707,37.5631302 C57.9672627,36.9348544 58.2281076,36.4346886 58.5985073,36.0787424 C58.9748691,35.7204948 59.430975,35.5402203 59.9549005,35.5402203 C60.3573468,35.5402203 60.701662,35.6491521 60.9803934,35.8654815 C61.2524173,36.088715 61.4499139,36.4101406 61.5609594,36.8243883 C61.6712595,37.2394033 61.7241738,38.044885 61.7241738,39.298368 L61.7241738,43.7599699 L64.0904094,43.7599699 L64.0904094,36.9923888 C64.0904094,35.8263581 63.8042254,34.9288213 63.2363286,34.3412032 C62.5558961,33.636982 61.7211928,33.2871727 60.7478688,33.2871727 C60.2694048,33.2871727 59.7998841,33.3830634 59.3437783,33.5748448 C58.8884177,33.759722 58.3734354,34.1056956 57.8070295,34.5935874 Z M66.3687028,33.5510639 L68.7707112,33.5510639 L68.7707112,43.7599699 L66.3687028,43.7599699 L66.3687028,33.5510639 Z M70.706925,38.6762293 C70.706925,40.1851651 71.1786818,41.4677989 72.1028179,42.4850073 C73.0388781,43.5045171 74.1515679,44.023861 75.4244907,44.023861 C75.9871701,44.023861 76.5207844,43.919532 77.0067009,43.7062711 C77.4903818,43.5022157 77.9792796,43.1547078 78.4674321,42.6829256 L78.5635721,42.5816651 L78.5635721,43.7599699 L80.9663258,43.7599699 L80.9663258,33.5510639 L78.5635721,33.5510639 L78.5635721,34.779999 L78.4644512,34.6687658 C78.02176,34.2123261 77.5358435,33.8625169 77.0171347,33.6308449 C76.4999166,33.4007073 75.9417088,33.2871727 75.3499634,33.2871727 C74.0636257,33.2871727 72.9598796,33.7942427 72.0625731,34.7892045 C71.163031,35.794906 70.706925,37.0990193 70.706925,38.6762293 Z M73.8847605,36.4277845 C74.40496,35.8493719 75.0712324,35.563234 75.8612197,35.563234 C76.6690933,35.563234 77.3465444,35.8417006 77.8749418,36.4147433 C78.4055747,36.9785806 78.6686553,37.7249937 78.6686553,38.6348045 C78.6686553,39.5653277 78.4055747,40.3270833 77.8749418,40.9016603 C77.3465444,41.4785386 76.6735649,41.7685121 75.8716531,41.7685121 C75.0913543,41.7685121 74.4258273,41.4701003 73.8951944,40.8863178 C73.3653069,40.3033024 73.0970093,39.548451 73.0970093,38.6447771 C73.0970093,37.7495417 73.3593446,37.0031286 73.8847605,36.4277845 Z M83.3683342,29.5643128 L85.7688523,29.5643128 L85.7688523,43.7599699 L83.3683342,43.7599699 L83.3683342,29.5643128 Z M92.3622647,43.7599699 L98.5837869,43.7599699 L98.5837869,41.3412232 L94.8268758,41.3412232 L94.8268758,29.5566415 L92.3622647,29.5566415 L92.3622647,43.7599699 Z M106.242192,31.0954953 C106.2094,31.3394411 106.184806,32.1449229 106.178844,33.4873925 L106.178844,33.5518311 L105.282283,33.5518311 L105.282283,35.6192342 L106.178844,35.6192342 L106.178844,43.7599699 L108.583833,43.7599699 L108.583833,35.6192342 L110.173496,35.6192342 L110.173496,33.5518311 L108.583833,33.5518311 L108.590541,32.1963203 C108.590541,31.8771961 108.644945,31.6700722 108.7545,31.5634418 C108.908026,31.4230579 109.138315,31.3517151 109.443876,31.3517151 C109.664476,31.3517151 109.947679,31.4084824 110.28007,31.5013046 L110.28007,29.6525322 C109.650316,29.4216275 109.070495,29.2996545 108.568928,29.2996545 C107.858684,29.2996545 107.301222,29.4607509 106.915172,29.7821764 C106.535829,30.1028349 106.306285,30.5454663 106.242192,31.0954953 Z M110.780147,38.711517 C110.780147,40.2219871 111.274262,41.5007853 112.251312,42.5080211 C113.223145,43.5121883 114.502775,44.023861 116.059647,44.023861 C117.0598,44.023861 117.933258,43.8366824 118.660643,43.4722978 C119.369395,43.1171187 119.980517,42.562487 120.491773,41.8283479 C120.362096,41.7685121 118.538418,40.8886191 118.47358,40.857167 C117.793147,41.5261005 116.978566,41.8674713 116.039524,41.8674713 C115.239848,41.8674713 114.56985,41.645772 114.054122,41.2000721 C113.542867,40.758975 113.216438,40.153713 113.100175,39.4065327 L113.088251,39.3344229 L121.189347,39.3344229 C121.195309,39.2416007 121.200526,38.900997 121.200526,38.900997 C121.200526,37.2232936 120.707902,35.8493719 119.730106,34.8275607 C118.758273,33.8049824 117.478643,33.2879399 115.915809,33.2879399 C114.454333,33.2879399 113.216438,33.8049824 112.247585,34.8275607 C111.274262,35.8493719 110.780147,37.1573208 110.780147,38.711517 Z M117.781223,35.9046049 C118.280554,36.2735923 118.618162,36.7599498 118.788084,37.3406638 L118.811933,37.4219791 L113.170977,37.4219791 L113.211221,37.3345268 C113.495915,36.6916757 113.81489,36.2321675 114.150262,35.9698106 C114.689838,35.563234 115.3263,35.3545759 116.035798,35.3545759 C116.693873,35.3545759 117.281891,35.5402203 117.781223,35.9046049 Z M101.871923,28.7749407 C102.788606,28.7749407 103.532386,27.6986636 103.532386,26.3792078 C103.532386,25.0559163 102.788606,23.9827078 101.871923,23.9827078 C100.955985,23.9827078 100.206242,25.0559163 100.206242,26.3792078 C100.206242,27.6986636 100.955985,28.7749407 101.871923,28.7749407 Z M89.0391011,26.7451266 C89.7553069,26.7451266 90.3552497,24.8909843 90.3552497,22.6985397 C90.3552497,20.5045608 89.7553069,18.6527199 89.0391011,18.6527199 C88.3310937,18.6527199 87.7259339,20.5045608 87.7259339,22.6985397 C87.7259339,24.8909843 88.3310937,26.7451266 89.0391011,26.7451266 Z M67.7124263,29.424696 C68.8668512,29.424696 69.8029113,28.4611863 69.8029113,27.2752103 C69.8029113,26.0846316 68.8668512,25.1241905 67.7124263,25.1241905 C66.5609828,25.1241905 65.6241768,26.0846316 65.6241768,27.2752103 C65.6241768,28.4611863 66.5609828,29.424696 67.7124263,29.424696 Z M77.3077903,24.4652297 C77.3077903,22.9532254 76.4865019,21.7212219 75.4826219,21.7212219 C74.4757606,21.7212219 73.6559624,22.9532254 73.6559624,24.4652297 C73.6559624,25.9733984 74.4757606,27.2046348 75.4826219,27.2046348 C76.4865019,27.2046348 77.3077903,25.9733984 77.3077903,24.4652297 Z M95.6571079,22.0925106 C96.5119336,22.0925106 97.2117431,20.7270272 97.2117431,19.050858 C97.2117431,17.369319 96.5454708,16 95.6906451,16 C94.8313474,16 94.1017274,17.369319 94.1017274,19.050858 C94.1017274,20.7270272 94.8000462,22.0925106 95.6571079,22.0925106 Z M82.4620845,23.7916935 C83.216299,23.7916935 83.8289118,22.3379908 83.8289118,20.5513555 C83.8289118,18.7654874 83.216299,17.314086 82.4620845,17.314086 C81.7093611,17.314086 81.10122,18.7654874 81.10122,20.5513555 C81.10122,22.3379908 81.7093611,23.7916935 82.4620845,23.7916935 Z M100.670546,33.5510639 L103.07479,33.5510639 L103.07479,43.7599699 L100.670546,43.7599699 L100.670546,33.5510639 Z M122.484628,43.7653397 C121.829535,43.7653397 121.313062,43.24753 121.313062,42.574761 C121.313062,41.9158002 121.829535,41.3979905 122.492081,41.3979905 C123.138231,41.3979905 123.642034,41.9158002 123.642034,42.574761 C123.642034,43.24753 123.138231,43.7653397 122.484628,43.7653397 Z M122.492081,43.5513117 C123.001101,43.558983 123.390132,43.1217214 123.390132,42.5816651 C123.390132,42.0416087 123.001101,41.6058815 122.477175,41.6058815 C121.959212,41.6058815 121.564964,42.0416087 121.564964,42.574761 C121.564964,43.1217214 121.959212,43.5513117 122.492081,43.5513117 Z M122.052371,43.2252834 L122.052371,41.9902114 C122.174595,41.9687319 122.304272,41.9533893 122.469723,41.9533893 C122.670946,41.9533893 122.771557,41.9902114 122.843849,42.04928 C122.915395,42.1006774 122.964582,42.1973352 122.964582,42.3162397 C122.964582,42.4635278 122.857264,42.5601856 122.735039,42.6046788 L122.735039,42.6192543 C122.837141,42.6637475 122.893782,42.7596382 122.9303,42.9222688 C122.964582,43.1071461 122.994393,43.1815572 123.023459,43.2252834 L122.79317,43.2252834 C122.756652,43.1815572 122.727586,43.070324 122.692558,42.9076934 C122.663493,42.7673095 122.58524,42.7074737 122.419044,42.7074737 L122.275207,42.7074737 L122.275207,43.2252834 L122.052371,43.2252834 Z M122.426497,42.5302677 C122.58524,42.5302677 122.735039,42.4788703 122.735039,42.3377192 C122.735039,42.2195819 122.65604,42.1305953 122.44811,42.1305953 C122.362403,42.1305953 122.311725,42.1382666 122.275207,42.1459378 L122.275207,42.5302677 L122.426497,42.5302677 Z" id="Combined-Shape" fill="#5B7183"></path>
                        <g id="Don't-Icon" transform="translate(48.000000, 13.000000)">
                            <path d="M40.7992,20 C40.7992,31.046 31.8452,40 20.7992,40 C9.7542,40 0.7992,31.046 0.7992,20 C0.7992,8.954 9.7542,0 20.7992,0 C31.8452,0 40.7992,8.954 40.7992,20" id="Fill-1" fill="#FEFEFE"></path>
                            <path d="M39.7992,20 C39.7992,30.493 31.2932,39 20.7992,39 C10.3062,39 1.7992,30.493 1.7992,20 C1.7992,9.506 10.3062,1 20.7992,1 C31.2932,1 39.7992,9.506 39.7992,20" id="Fill-3" fill="#7E2724"></path>
                            <polygon id="Fill-5" fill="#FEFEFE" points="26.7367 28.4238 20.7997 22.4868 14.8617 28.4238 12.3757 25.9378 18.3127 19.9998 12.3757 14.0628 14.8617 11.5758 20.7997 17.5128 26.7367 11.5758 29.2237 14.0628 23.2867 19.9998 29.2237 25.9378"></polygon>
                        </g>
                    </g>
                </g>
            </g>
        </g>
    </g>
</svg>

<svg width="137" height="65" viewBox="0 0 137 65" xmlns="http://www.w3.org/2000/svg" xmlns:xlink="http://www.w3.org/1999/xlink"><title>Group 29</title><defs><rect id="a" width="137" height="65" rx="4"/><mask id="b" x="0" y="0" width="137" height="65" fill="#fff"><use xlink:href="#a"/></mask></defs><g fill="none" fill-rule="evenodd"><use stroke="#DEE5EB" mask="url(#b)" stroke-width="2" fill="#FFF" xlink:href="#a"/><path d="M21.13 32.012c-1.303 0-2.42.47-3.317 1.386-.895.922-1.348 2.072-1.348 3.42 0 .937.199 1.787.596 2.512a4.353 4.353 0 0 0 1.692 1.727c.72.41 1.539.623 2.424.623.755 0 1.454-.147 2.08-.435.611-.287 1.292-.812 2.016-1.546.074.078 1.592 1.71 1.673 1.789-.976.975-1.912 1.658-2.781 2.037-.883.386-1.905.586-3.031.586-2.082 0-3.812-.695-5.136-2.051C14.67 40.7 14 38.939 14 36.81c0-1.374.304-2.611.906-3.68.606-1.063 1.484-1.938 2.607-2.59a7.255 7.255 0 0 1 3.658-.976c1.104 0 2.184.242 3.207.722a7.74 7.74 0 0 1 2.619 2.024l-1.722 1.686c-1.224-1.314-2.617-1.984-4.145-1.984zm6.322 6.651c0 1.48.507 2.76 1.509 3.796 1.003 1.032 2.225 1.565 3.638 1.565a5.147 5.147 0 0 0 4.556-2.676c.46-.84.694-1.745.694-2.703 0-.951-.23-1.854-.69-2.675a5.122 5.122 0 0 0-1.928-1.963 5.157 5.157 0 0 0-2.639-.72c-1.289 0-2.446.467-3.435 1.381-1.131 1.066-1.705 2.407-1.705 3.995zm2.39-.007c0-.887.27-1.624.795-2.193.53-.574 1.201-.862 1.996-.862.809 0 1.489.285 2.01.85.523.563.785 1.305.785 2.205 0 .895-.267 1.64-.803 2.214-.527.576-1.201.863-2.003.863-.8 0-1.47-.287-1.995-.852-.519-.57-.785-1.316-.785-2.225zm9.5-8.84h2.4V43.76h-2.4V29.817zm3.9 8.847c0 1.48.508 2.76 1.509 3.796 1.002 1.032 2.225 1.565 3.641 1.565a5.15 5.15 0 0 0 2.653-.714 5.145 5.145 0 0 0 1.898-1.962c.462-.84.696-1.745.696-2.703 0-.951-.231-1.854-.69-2.675a5.16 5.16 0 0 0-1.927-1.963 5.166 5.166 0 0 0-2.64-.72c-1.285 0-2.443.467-3.435 1.381-1.132 1.066-1.704 2.407-1.704 3.995zm2.391-.007c0-.887.267-1.624.796-2.193.53-.574 1.2-.862 1.993-.862.812 0 1.488.285 2.01.85.522.563.788 1.305.788 2.205 0 .895-.269 1.64-.802 2.214-.53.576-1.206.863-2.006.863-.8 0-1.47-.287-1.991-.852-.525-.57-.788-1.316-.788-2.225zm12.174-4.062l-.096.086v-1.13h-2.403v10.21h2.403v-4.086c0-1.09.038-1.779.113-2.11.143-.63.404-1.13.775-1.485a1.905 1.905 0 0 1 1.356-.539c.402 0 .747.11 1.025.325.272.224.47.545.581.96.11.414.163 1.22.163 2.473v4.462h2.366v-6.768c0-1.166-.286-2.063-.854-2.65a3.335 3.335 0 0 0-2.488-1.055 3.59 3.59 0 0 0-1.404.288c-.456.185-.97.53-1.537 1.019zm8.562-1.043h2.402V43.76h-2.402V33.551zm4.338 5.125c0 1.51.472 2.792 1.396 3.809.936 1.02 2.049 1.539 3.321 1.539.563 0 1.097-.104 1.583-.318.483-.204.972-.551 1.46-1.023l.097-.101v1.178h2.402V33.551h-2.402v1.229l-.1-.111a4.697 4.697 0 0 0-1.447-1.038 4.062 4.062 0 0 0-1.667-.344c-1.286 0-2.39.507-3.287 1.502-.9 1.006-1.356 2.31-1.356 3.887zm3.178-2.248c.52-.579 1.186-.865 1.976-.865.808 0 1.486.279 2.014.852.53.564.794 1.31.794 2.22 0 .93-.263 1.692-.794 2.267-.528.577-1.201.867-2.003.867-.78 0-1.446-.299-1.977-.883-.53-.583-.798-1.338-.798-2.241 0-.895.262-1.642.788-2.217zm9.483-6.864h2.4V43.76h-2.4V29.564zm8.994 14.196h6.222v-2.419h-3.757V29.557h-2.465V43.76zm13.88-12.665c-.033.244-.057 1.05-.063 2.392v.065h-.897v2.067h.897v8.141h2.405v-8.14h1.59v-2.068h-1.59l.007-1.356c0-.319.054-.526.163-.633.154-.14.384-.211.69-.211.22 0 .504.056.836.15v-1.85c-.63-.23-1.21-.352-1.711-.352-.71 0-1.268.16-1.654.482-.38.32-.609.763-.673 1.313zm4.538 7.617c0 1.51.494 2.789 1.471 3.796.972 1.004 2.252 1.516 3.809 1.516 1 0 1.873-.187 2.6-.552.71-.355 1.32-.91 1.832-1.644-.13-.06-1.954-.94-2.018-.97-.68.668-1.495 1.01-2.434 1.01-.8 0-1.47-.222-1.986-.668-.511-.441-.838-1.046-.954-1.793l-.012-.073h8.101c.006-.092.012-.433.012-.433 0-1.678-.493-3.052-1.47-4.073-.973-1.023-2.252-1.54-3.815-1.54-1.462 0-2.7.517-3.668 1.54-.974 1.021-1.468 2.33-1.468 3.884zm7.001-2.807c.5.369.837.855 1.007 1.436l.024.081h-5.641l.04-.087c.285-.643.604-1.103.94-1.365a3.067 3.067 0 0 1 1.885-.615c.658 0 1.246.185 1.745.55zm-15.91-7.13c.918 0 1.661-1.076 1.661-2.396 0-1.323-.743-2.396-1.66-2.396-.916 0-1.666 1.073-1.666 2.396 0 1.32.75 2.396 1.666 2.396zm-12.832-2.03c.716 0 1.316-1.854 1.316-4.046 0-2.194-.6-4.046-1.316-4.046-.708 0-1.313 1.852-1.313 4.046 0 2.192.605 4.046 1.313 4.046zm-21.327 2.68c1.155 0 2.09-.964 2.09-2.15 0-1.19-.935-2.15-2.09-2.15-1.151 0-2.088.96-2.088 2.15 0 1.186.937 2.15 2.088 2.15zm9.596-4.96c0-1.512-.821-2.744-1.825-2.744-1.007 0-1.827 1.232-1.827 2.744 0 1.508.82 2.74 1.827 2.74 1.004 0 1.825-1.232 1.825-2.74zm18.35-2.372c.854 0 1.554-1.366 1.554-3.042 0-1.682-.667-3.051-1.521-3.051-.86 0-1.59 1.37-1.59 3.05 0 1.677.699 3.043 1.556 3.043zm-13.196 1.699c.754 0 1.367-1.454 1.367-3.24 0-1.787-.613-3.238-1.367-3.238-.753 0-1.36 1.451-1.36 3.237 0 1.787.607 3.24 1.36 3.24zm18.209 9.76h2.404V43.76h-2.404V33.551zm21.814 10.213a1.167 1.167 0 0 1-1.172-1.19c0-.66.517-1.177 1.18-1.177.645 0 1.149.518 1.149 1.177 0 .673-.504 1.19-1.157 1.19zm.007-.214c.51.008.898-.43.898-.97s-.389-.975-.913-.975c-.518 0-.912.436-.912.969 0 .547.394.976.927.976zm-.44-.326V41.99c.123-.021.252-.037.418-.037.2 0 .302.037.374.096.071.052.12.148.12.267 0 .148-.107.244-.229.289v.014c.102.045.159.14.195.303.035.185.064.26.093.303h-.23c-.036-.043-.065-.155-.1-.317-.03-.14-.108-.2-.274-.2h-.144v.517h-.223zm.374-.695c.16 0 .309-.051.309-.192 0-.118-.079-.207-.287-.207a.804.804 0 0 0-.173.015v.384h.151z" fill="#5B7183"/><path d="M88.8 33c0 11.046-8.955 20-20 20-11.046 0-20-8.954-20-20s8.954-20 20-20c11.045 0 20 8.954 20 20" fill="#FEFEFE"/><path d="M87.8 33c0 10.493-8.507 19-19 19-10.494 0-19-8.507-19-19 0-10.494 8.506-19 19-19 10.493 0 19 8.506 19 19" fill="#7E2724"/><path fill="#FEFEFE" d="M74.737 41.424L68.8 35.487l-5.938 5.937-2.486-2.486L66.313 33l-5.937-5.937 2.486-2.487 5.938 5.937 5.937-5.937 2.487 2.487L71.287 33l5.937 5.938z"/></g></svg>
